X:40
T: Unter der Linde
N: A0040
O: Europa, Mitteleuropa, Deutschland
N: Melodie (von Boehme zum Text gesetzt): Souterliedekens 1544
N: ad Ps. 63.
R: Romanze, Ballade, Lied
M: 3/2
L: 1/4
K: D
D2 | D4D2 | A2A2A2 | B2B2B2 | A4
A2 | B4A2 | d4A2 | =c4B2 | A4
=c2 | B3=cd2 | =c3BA2 | G2E2=F2 | D4
A2 | A4=c2 | A2A2D2 | =F2E4 | D4

@@@ Tune index: 40
